X: 30569
T: Once Upon A Time In Beara
R: reel
M: 4/4
K: Adorian
|:A,2EA, (3CB,A, EA,|A,EDC B,G,G,B,|A,CB,D CED=F|EcBA GEDB,|
A,2EA, (3CB,A, EA,|A,EDC B,G,A,B,|CB,A,B, CDEF|GEDA, B,G,G,G,:|
EA (3AAA A3A|EAAB AGEF|G2dG eGBd|cBAG EGAB|
ceAc BdGB|=FADF E2GA|cedB cBAG|EA (3AAA A2ED|
EAAG A3A|EAAB AGEF|G2dG eGBd|cBAG EGAB|
ceAc BdGB|=FADF E2DC|A,2(3A,A,A, A,B,CD|EDB,A, G,4||

